X: 1
T:The Walrus  "Arr. Bill Boxall"
M:C|
L:1/8
Q:80
C:R. Mathieson
S:Hornpipe
K:HP
|: {g}B/2d/2|
{g}eA{g}B/2A/2{g}B/2d/2|
{g}e/2g/2{a}f/2d/2{gef}e{g}d/2B/2|  !
{g}G/2d/2{g}d/2{c}d/2{g}B/2A/2{g}B/2d/2|
{gef}eg/2e/2{g}d/2B/2{g}c/2d/2| |
{g}eA{g}B/2A/2{g}B/2d/2|  !
{g}e/2g/2{a}f/2d/2{gef}e{g}d/2B/2|
{g}G/2{d}G/2{g}B/2d/2{g}e/2d/2{g}B/2{d}G/2|
{g}A{GAG}A{g}A:| |:  !
{g}B/2d/2|
{g}eae{g}d/2B/2|
{g}e/2g/2{a}f/2d/2{gef}e{g}d/2B/2|  !
{g}G/2d/2{g}d/2{c}d/2{g}B/2A/2{g}B/2d/2|
{gef}eg/2e/2{g}d/2B/2{g}c/2d/2| |
|1 {g}eae{g}d/2B/2|  !
{g}e/2g/2{a}f/2d/2{gef}e{g}d/2B/2|
{g}c/2d/2{c}d/2B/2{g}G/2A/2{g}B/2{d}G/2|
{g}A{GAG}A{g}A:| |  !
|2 {g}eA{g}B/2A/2{g}B/2d/2|
{g}e/2g/2{a}f/2d/2{gef}e{g}d/2B/2|
{g}G/2{d}G/2{g}B/2d/2{g}e/2d/2{g}B/2{d}G/2|  !
{g}A{GAG}A{g}A2|] |:
{g}e/2A/2{g}A/2{d}A/2{g}B/2A/2{g}B/2d/2|
{g}e/2g/2{a}f/2d/2{gef}e{g}d/2B/2|  !
{g}c/2d/2{c}d/2B/2{g}G/2{d}G/2{g}B/2d/2|
{gef}eg/2e/2{g}d/2B/2{g}c/2d/2| |
|1 {g}e/2A/2{g}A/2{d}A/2a/2A/2{g}A/2g/2-|  !
g/2A/2{g}f/2A/2{gef}e{g}d/2B/2|
{g}G/2{d}G/2{g}B/2d/2{g}e/2d/2{g}B/2{d}G/2|
{g}A{GAG}A{g}A2:| |  !
|2 {g}e/2A/2{g}A/2{d}A/2a/2A/2{g}A/2g/2-|
g/2A/2{g}f/2A/2{gef}e{g}d/2B/2|
{g}d/2{c}d/2{g}e/2f/2{a}g/2f/2{g}e/2d/2|  !
{g}e{A}e{gef}e|] |:
{g}e/2g/2|
{ag}ae/2g/2a/2g/2{a}e/2d/2|  !
{g}e/2g/2{a}d/2e/2{ag}ag/2e/2|
{Gdc}d{g}e/2f/2{g}d/2B/2{g}B/2{G}B/2|
{gef}eg/2e/2{g}d/2B/2{g}c/2d/2| |  !
|1 e/2a/2{g}a/2g/2{a}e/2d/2{g}e/2g/2|
a/2g/2{a}e/2d/2{gef}e{g}d/2B/2|
{g}c/2d/2{c}d/2B/2{g}G/2A/2{g}B/2{d}G/2|  !
{g}A{GAG}A{g}A:| |
|2 {g}e/2A/2{g}A/2{d}A/2a/2A/2{g}A/2g/2-|
g/2A/2{g}f/2A/2{gef}e{g}d/2B/2|  !
{g}G/2{d}G/2{g}B/2d/2{g}e/2d/2{g}B/2{d}G/2|
{g}A{GAG}A{g}A|]
